src/icons/svgs/16/star.svg

<svg width="16" height="16" viewBox="0 0 16 16" fill="none" xmlns="http://www.w3.org/2000/svg">
<path d="M8.81205 1.4519L10.5348 4.81352L14.3896 5.35407C15.0813 5.45045 15.3583 6.27039 14.8569 6.7401L12.0686 9.3324L12.7281 13.0266C12.8468 13.6946 12.1165 14.192 11.5041 13.8823L8.05638 12.1613L4.60975 13.9056C3.99626 14.2154 3.26691 13.7177 3.3854 13.05L4.04497 9.35576L1.25581 6.74061C0.754746 6.27089 1.03158 5.45106 1.72317 5.35457L5.57791 4.81402L7.3007 1.45241C7.6114 0.845516 8.50399 0.853057 8.81205 1.4519Z" fill="black"/>
</svg>

<svg width="16" height="16" viewBox="0 0 16 16" xmlns="http://www.w3.org/2000/svg">
    <path d="m8.812 1.452 1.723 3.362 3.855.54c.691.096.968.916.467 1.386l-2.788 2.592.66 3.695c.118.668-.612 1.165-1.225.855l-3.448-1.72-3.446 1.744c-.614.31-1.343-.188-1.225-.856l.66-3.694-2.79-2.615c-.5-.47-.223-1.29.468-1.386l3.855-.541L7.3 1.452c.31-.606 1.203-.599 1.511 0Z"/>
</svg>
